**kern
*I"钢琴
*clefG2
*k[]
*M4/4
*MM79
=1
1r
=2
*k[b-e-a-]
1r
=3
1r
=4
1r
=5
1r
=6
8dL
8c
8B-
[8cJ
4c]
8r
16cLL
16dJJ
=7
8e-L
8d
8c
[8dJ
4d]
8cL
8B-J
=8
8B-L
8c
8d
[8cJ
8cL]
8B-
8A-
[8B-J
=9
8B-L]
8c
8d
8cJ
2r
=10
8dL
8c
8B-
[8cJ
4c]
8r
16cLL
16dJJ
=11
8e-L
8d
8c
[8dJ
4d]
8cL
8B-J
=12
8b-L
8a-
8g
[8fJ
8fL]
8c
8d
[8e-J
=13
8e-L]
8d
8c
8B-J
8A-L
8B-
8c
[8B-J
=14
4B-]
4r
8cL
8B-
8A-
8B-J
=15
4.f
16gLL
[16fJJ
4f_
16fLL]
16f
16g
[16fJJ
=16
4.f]
16cLL
[16dJJ
4d]
16B-LL
16cJ
8dJ
=17
8dL
8c
8c
8B-J
8G
4B-
[8f
=18
4f]
16e-LL
16dJ
[8cJ
4c]
4r
=19
2r
16fLL
16e-
16d
[16e-JJ
16e-LL]
16f
16g
[16fJJ
=20
4f]
16dLL
16c
16B-
[16cJJ
8cL]
16B-L
[16cJJ
8cL]
16dL
[16e-JJ
=21
8e-L]
16fL
[16dJJ
8dL]
16cL
[16B-JJ
4B-]
8r
16B-LL
[16cJJ
=22
8cL]
8B-
8A-
8B-J
4.g
16fLL
[16fJJ
=23
4f]
8r
16r
16B-
8fL
16e-L
[16dJJ
16dKL]
8e-
[16e-Jk
=24
4e-]
8r
16r
16F
8e-L
16dL
[16cJJ
16cKL]
8d
[16dJk
=25
4d]
8r
16r
16F
8dL
16cL
[16B-JJ
8B-L]
16cL
[16cJJ
=26
4c]
4G
4.B-
16cLL
[16cJJ
=27
4c]
4F
16fLL
16e-
16d
[16e-JJ
16e-LL]
16f
16g
[16fJJ
=28
4f]
16dLL
16c
16B-
[16cJJ
8cL]
16B-L
[16cJJ
8cL]
16dL
[16e-JJ
=29
8e-L]
16fL
[16dJJ
8dL]
16cL
[16B-JJ
4B-]
8r
16B-LL
[16cJJ
=30
8cL]
8B-
8A-
8B-J
4.g
16fLL
[16fJJ
=31
4f]
8r
16r
16B-
8b-L
16fL
[16fJJ
8fL]
16e-L
[16e-JJ
=32
8e-L]
16dL
[16dJJ
8d]
16r
16d
8gL
16dL
16dJJ
8cL
16dL
[16cJJ
=33
8cL]
16B-L
[16B-JJ
8B-]
16r
16G
8e-L
16dL
[16dJJ
8dL]
16cL
[16cJJ
=34
8cL]
16B-L
[16GJJ
8GL]
16B-L
[16cJJ
8c]
8r
4B-
=35
8dL
16B-L
[16B-JJ
8B-L]
16A-L
[16B-JJ
2B-_
=36
2B-]
2r
=37
1r
=38
1r
=39
2r
8dL
8c
8B-
[8cJ
=40
4c]
8r
16cLL
16dJJ
8e-L
8d
8c
[8dJ
=41
4d]
8cL
8B-J
8B-L
8c
8d
[8cJ
=42
8cL]
8B-
8A-
[8B-J
8B-L]
8c
8d
8cJ
=43
2r
8dL
8c
8B-
[8cJ
=44
4c]
8r
16cLL
16dJJ
8e-L
8d
8c
[8dJ
=45
4d]
8cL
8B-J
8b-L
8a-
8g
[8fJ
=46
8fL]
8c
8d
[8e-J
8e-L]
8d
8c
8B-J
=47
8A-L
8B-
8c
[8B-J
4B-]
4r
=48
8cL
8B-
8A-
8B-J
4.f
16gLL
[16fJJ
=49
4f_
16fLL]
16f
16g
[16fJJ
4.f]
16cLL
[16dJJ
=50
4d]
16B-LL
16cJ
8dJ
8dL
8c
8c
8B-J
=51
8GL
8B-
8G
[8fJ
4f]
16e-LL
16dJ
[8cJ
=52
4c]
4r
2r
=53
16fLL
16e-
16d
[16e-JJ
16e-LL]
16f
16g
[16fJJ
4f]
16dLL
16c
16B-
[16cJJ
=54
8cL]
16B-L
[16cJJ
8cL]
16dL
[16e-JJ
8e-L]
16fL
[16dJJ
8dL]
16cL
[16B-JJ
=55
4B-]
8r
16B-LL
[16cJJ
8cL]
8B-
8A-
8B-J
=56
4.g
16fLL
[16fJJ
4f]
8r
16r
16B-
=57
8fL
16e-L
[16dJJ
16dKL]
8e-
[16e-Jk
4e-]
8r
16r
16F
=58
8e-L
16dL
[16cJJ
16cKL]
8d
[16dJk
4d]
8r
16r
16F
=59
8dL
16cL
[16B-JJ
8B-L]
16cL
[16cJJ
4c]
4G
=60
4.B-
16cLL
[16cJJ
4c]
4F
=61
16fLL
16e-
16d
[16e-JJ
16e-LL]
16f
16g
[16fJJ
4f]
16dLL
16c
16B-
[16cJJ
=62
8cL]
16B-L
[16cJJ
8cL]
16dL
[16e-JJ
8e-L]
16fL
[16dJJ
8dL]
16cL
[16B-JJ
=63
4B-]
8r
16B-LL
[16cJJ
8cL]
8B-
8A-
8B-J
=64
4.g
16fLL
[16fJJ
4f]
8r
16r
16B-
=65
8b-L
16fL
[16fJJ
8fL]
16e-L
[16e-JJ
8e-L]
16dL
[16dJJ
8d]
16r
16d
=66
8gL
16dL
16dJJ
8cL
16dL
[16cJJ
8cL]
16B-L
[16B-JJ
8B-]
16r
16G
=67
8e-L
16dL
[16dJJ
8dL]
16cL
[16cJJ
8cL]
16B-L
[16GJJ
8GL]
16B-L
[16cJJ
=68
8c]
8r
4B-
8dL
16B-L
[16B-JJ
8B-L]
16A-L
16B-JJ
=69
2B-
2r
=70
1r
=71
1r
=72
1r
=73
16fLL
16e-
16d
[16e-JJ
16e-LL]
16f
16g
[16fJJ
4f]
16dLL
16c
16B-
[16cJJ
=74
8cL]
16B-L
[16cJJ
8cL]
16dL
[16e-JJ
8e-L]
16fL
[16dJJ
8dL]
16cL
[16B-JJ
=75
4B-]
8r
16B-LL
[16cJJ
8cL]
8B-
8A-
8B-J
=76
4.g
16fLL
[16fJJ
4f]
8r
16r
16B-
=77
8fL
16e-L
[16dJJ
16dKL]
8e-
[16e-Jk
4e-]
8r
16r
16F
=78
8e-L
16dL
[16cJJ
16cKL]
8d
[16dJk
4d]
8r
16r
16F
=79
8dL
16cL
[16B-JJ
8B-L]
16cL
[16cJJ
4c]
4G
=80
4.B-
16cLL
[16cJJ
4c]
4F
=81
16fLL
16e-
16d
[16e-JJ
16e-LL]
16f
16g
[16fJJ
4f]
16dLL
16c
16B-
[16cJJ
=82
8cL]
16B-L
[16cJJ
8cL]
16dL
[16e-JJ
8e-L]
16fL
[16dJJ
8dL]
16cL
[16B-JJ
=83
4B-]
8r
16B-LL
[16cJJ
8cL]
8B-
8A-
8B-J
=84
4.g
16fLL
[16fJJ
4f]
8r
16r
16B-
=85
8b-L
16fL
[16fJJ
8fL]
16e-L
[16e-JJ
8e-L]
16dL
[16dJJ
8d]
16r
16d
=86
8gL
16dL
16dJJ
8cL
16dL
[16cJJ
8cL]
16B-L
[16B-JJ
8B-]
16r
16G
=87
8e-L
8dJ
8dL
16cL
[16cJJ
8cL]
16B-L
[16GJJ
8GL]
16B-L
[16cJJ
=88
8.cL]
16B-Jk
16B-KL
8B-
16B-Jk
8dL
16B-L
[16B-JJ
8B-L]
16A-L
[16B-JJ
=89
2B-]
2r
=90
1r
=91
4r
8r
[8D
8DL]
8F
8B-
8fJ
=92
4.g
[8f
8f]
4c
8B-
=93
4G
4B-
4e-
4g
=94
1f
==
*-
